X:178
T:Sno
R:
C:Bruce Osborne - Dec.2002
Z:abc by bosborne@kos.net
M:3/4
L:1/8
K:Dmaj
AG|F2 A2 AG|F2 A2 de|fa fe dB|c4 cd|\
e2 ef ed|c2 cd cB|AE CE DE|F4 AG|\
F2 A2 AG|F2 A2 de|fa fe dB|c4 cd|\
e2 ef ed|c2 cd cB|AB cd fe|d4||\
fa|f2 d2 fa|f2 d2 de|fa fe dB|c4 ef|\
e2 c2 ef|e2 c2 cd|cB AB ca|f4 fa|\
f2 d2 fa|f2 d2 de|fa fe dB|c4 cd|\
e2 ef ed|c2 cd cB|AB cd fe|d4||
